Icons and Attr/Envelope/icon_13468.svg

<svg xmlns="http://www.w3.org/2000/svg" width="100" height="100" viewBox="0 0 100 100"><path d="M91.875 22.01h-83.873c-1.658 0-3.002 1.345-3.002 3.002v52.638c0 1.66 1.344 3.002 3.002 3.002h83.873c1.658 0 3.002-1.342 3.002-3.002v-52.638c0-1.657-1.344-3.002-3.002-3.002zm-80.871 8.502l26.834 19.916-26.834 21.873v-41.789zm38.934 22.353l-33.483-24.851h66.969l-33.486 24.851zm-8.37.328l6.805 5.053c.465.344 1.016.516 1.565.516s1.101-.172 1.565-.516l7.025-5.217.039.039 26.134 21.58h-69.453l26.32-21.455zm20.682-2.925l26.623-19.756v41.742l-26.623-21.986z"/></svg>

<svg xmlns="http://www.w3.org/2000/svg" xmlns:xlink="http://www.w3.org/1999/xlink" version="1.1" x="0px" y="0px" width="100px" height="100px" viewBox="0 0 100 100" enable-background="new 0 0 100 100" xml:space="preserve"> <g id="Your_Icon"> <path d="M91.875,22.01H8.002C6.344,22.01,5,23.355,5,25.012V77.65c0,1.66,1.344,3.002,3.002,3.002h83.873   c1.658,0,3.002-1.342,3.002-3.002V25.012C94.877,23.355,93.533,22.01,91.875,22.01z M11.004,30.512l26.834,19.916L11.004,72.301   V30.512z M49.938,52.865L16.455,28.014h66.969L49.938,52.865z M41.568,53.193l6.805,5.053c0.465,0.344,1.016,0.516,1.565,0.516   s1.101-0.172,1.565-0.516l7.025-5.217c0.016,0.012,0.024,0.027,0.039,0.039l26.134,21.58H15.248L41.568,53.193z M62.25,50.268   l26.623-19.756v41.742L62.25,50.268z"/> </g> </svg>
